X: 3339
M: C
L: 1/8
K: D
(AG) |\
fgef decd | BcAB GBAG |\
fafd dfec | d2d2d2 :|
|: (de) |\
fedf edce | dcBd cBAc |\
fafd egec | d2d2d2 :|


